X: 38378
T: Star Above The Garter, The
R: slide
M: 12/8
K: Gmajor
|:d2B BAG A2A ABA|G2B c2B BAG ABc|
d2B BAG A2A ABA|G2B c2E D3 D3:|
|:d2e f2a g2e d2B|G2B c2B BAG ABc|
d2e f2a g2e d2B|G2B c2E D3 D3:|

